icons/svg/shields/h_pipeline_substation_shield.svg

<?xml version="1.0" encoding="UTF-8" standalone="no"?>
<!-- Created with Inkscape (http://www.inkscape.org/) -->

<svg
   xmlns:dc="http://purl.org/dc/elements/1.1/"
   xmlns:cc="http://creativecommons.org/ns#"
   xmlns:rdf="http://www.w3.org/1999/02/22-rdf-syntax-ns#"
   xmlns:svg="http://www.w3.org/2000/svg"
   xmlns="http://www.w3.org/2000/svg"
   xmlns:sodipodi="http://sodipodi.sourceforge.net/DTD/sodipodi-0.dtd"
   xmlns:inkscape="http://www.inkscape.org/namespaces/inkscape"
   version="1.0"
   width="16"
   height="16"
   id="svg2"
   sodipodi:version="0.32"
   inkscape:version="0.92.3 (2405546, 2018-03-11)"
   sodipodi:docname="h_pipeline_substation_shield.svg"
   inkscape:output_extension="org.inkscape.output.svg.inkscape">
  <metadata
     id="metadata2975">
    <rdf:RDF>
      <cc:Work
         rdf:about="">
        <dc:format>image/svg+xml</dc:format>
        <dc:type
           rdf:resource="http://purl.org/dc/dcmitype/StillImage" />
        <cc:license
           rdf:resource="http://web.resource.org/cc/PublicDomain" />
        <dc:language>en</dc:language>
        <dc:title />
      </cc:Work>
    </rdf:RDF>
  </metadata>
  <sodipodi:namedview
     inkscape:window-height="1006"
     inkscape:window-width="1920"
     inkscape:pageshadow="2"
     inkscape:pageopacity="0.0"
     guidetolerance="10.0"
     gridtolerance="10.0"
     objecttolerance="10.0"
     borderopacity="1.0"
     bordercolor="#666666"
     pagecolor="#ffffff"
     id="base"
     inkscape:zoom="11.313709"
     inkscape:cx="1.915388"
     inkscape:cy="16.407643"
     inkscape:window-x="1920"
     inkscape:window-y="0"
     inkscape:current-layer="svg2"
     showgrid="false"
     inkscape:window-maximized="1" />
  <defs
     id="defs4">
    <inkscape:perspective
       sodipodi:type="inkscape:persp3d"
       inkscape:vp_x="0 : 290 : 1"
       inkscape:vp_y="0 : 1000 : 0"
       inkscape:vp_z="580 : 290 : 1"
       inkscape:persp3d-origin="290 : 193.33333 : 1"
       id="perspective2441" />
    <inkscape:perspective
       id="perspective3452"
       inkscape:persp3d-origin="30 : 20 : 1"
       inkscape:vp_z="60 : 30 : 1"
       inkscape:vp_y="0 : 1000 : 0"
       inkscape:vp_x="0 : 30 : 1"
       sodipodi:type="inkscape:persp3d" />
    <symbol
       viewBox="244.5 110 489 219.9"
       id="symbol-university">
      <path
         id="path4460"
         d="m 79,43 57,119 c 0,0 21,-96 104,-96 83,0 124,106 124,106 L 407,39 489,22 0,17 79,43 z"
         inkscape:connector-curvature="0" />
      <path
         id="path4462"
         d="M 94,176 73,215"
         inkscape:connector-curvature="0"
         style="fill:none;stroke:#000000;stroke-width:20" />
      <path
         id="path4464"
         d="M 300,19 C 300,29.5 277.4,38 249.5,38 221.6,38 199,29.5 199,19 199,8.5 221.6,0 249.5,0 277.4,0 300,8.5 300,19 z"
         inkscape:connector-curvature="0" />
      <path
         id="path4466"
         d="M 112,216 96,178 64,88 C 64,88 55,80 60,53 65,26 76,29 76,29"
         ill="none"
         inkscape:connector-curvature="0"
         style="stroke:#000000;stroke-width:20" />
    </symbol>
    <inkscape:perspective
       id="perspective4471"
       inkscape:persp3d-origin="372.04724 : 350.78739 : 1"
       inkscape:vp_z="744.09448 : 526.18109 : 1"
       inkscape:vp_y="0 : 1000 : 0"
       inkscape:vp_x="0 : 526.18109 : 1"
       sodipodi:type="inkscape:persp3d" />
    <inkscape:perspective
       id="perspective4668"
       inkscape:persp3d-origin="6 : 4 : 1"
       inkscape:vp_z="12 : 6 : 1"
       inkscape:vp_y="0 : 1000 : 0"
       inkscape:vp_x="0 : 6 : 1"
       sodipodi:type="inkscape:persp3d" />
  </defs>
  <path
     style="opacity:0.80400002;vector-effect:none;fill:#ebe7e4;fill-opacity:1;stroke:none;stroke-width:150;stroke-linecap:butt;stroke-linejoin:miter;stroke-miterlimit:4;stroke-dasharray:none;stroke-dashoffset:0;stroke-opacity:1;marker:none;font-variant-east_asian:normal"
     d="m 5.4863281,1.7167969 c -0.2675024,0.00154 -0.4603048,0.00441 -0.5996093,0.00781 -0.069652,0.0017 -0.1258243,0.00287 -0.1777344,0.00586 -0.05191,0.00299 -0.014886,-0.029544 -0.2578125,0.041016 C 4.0971428,1.8743134 3.9323412,1.9793223 3.703125,2.2832031 3.5077926,2.5421652 3.5111923,2.6733971 3.4882812,2.8203125 c -0.022911,0.1469154 -0.043578,0.2777904 0.015625,0.5136719 0.076498,0.3047873 0.1996925,0.420855 0.3144532,0.5390625 0.1147607,0.1182075 0.2375182,0.213997 0.4042968,0.296875 0.054337,0.027002 0.3732409,0.1284463 0.5644532,0.1386719 0.1912122,0.010226 0.4410269,0.010294 0.9550781,0.013672 h 0.1582031 c 0,0 0.098774,-0.00288 0.1269577,0.1542967 0.1602738,0.2994778 0.4686448,0.4198009 0.6679687,0.4726563 V 5.109375 L 5.9335983,5.111325 C 5.7132309,5.1119029 5.5011944,5.1956015 5.3398483,5.3457 L 5.28125,5.4003906 c -6.51e-4,6.49e-4 -0.0013,0.0013 -0.00195,0.00195 -0.028712,0.026956 -0.2931835,0.4313066 -0.3183594,0.6191406 -0.025176,0.187834 -0.015625,0.2656311 -0.015625,0.4570312 0,0.1898087 -0.00779,0.2740078 0.015625,0.453125 0.018953,0.145011 0.1601795,0.3679645 0.2402344,0.4902344 -0.00989,0.00901 -0.017274,0.012275 -0.027344,0.021484 C 5.161465,7.4331688 5.167431,7.4196688 5.1543,7.4101528 4.8797163,7.2111289 4.6835926,7.2233988 4.5683594,7.2167969 c -0.1152333,-0.0066 -0.1966647,-0.00391 -0.3007813,-0.00391 -0.1380916,0 -0.2433409,6.04e-4 -0.3476562,0.00781 -0.052158,0.0036 -0.1016976,0.00845 -0.1796875,0.023437 C 3.6996894,7.2519339 3.5651509,7.3482415 3.4863281,7.375 3.4857101,7.3746017 3.4849681,7.37342 3.4843781,7.37305 3.4414227,7.3460455 3.4064656,7.3278523 3.3769531,7.3144531 3.3179281,7.2876548 3.2802827,7.2767925 3.2480469,7.2675781 3.1835752,7.2491493 3.144985,7.2434887 3.1113281,7.2382812 3.0440144,7.2278664 2.9966701,7.2240839 2.9453125,7.2207031 c -0.1027152,-0.00676 -0.2098596,-0.00977 -0.3183594,-0.00977 -0.1084997,0 -0.213691,0.003 -0.3164062,0.00977 -0.051358,0.00338 -0.098702,0.00716 -0.1660157,0.017578 -0.033657,0.00521 -0.072247,0.010868 -0.1367187,0.029297 -0.032236,0.00921 -0.069881,0.020076 -0.1289063,0.046875 -0.029513,0.013399 -0.064469,0.031592 -0.1074218,0.058594 -0.042953,0.027002 -0.1556527,0.1224495 -0.15625,0.1230469 -0.1409323,0.1409634 -0.1160382,0.1789445 -0.1386719,0.25 -0.015005,9.159e-4 -0.029984,0.00222 -0.044922,0.00391 L 1.4746096,7.74805 C 1.4316405,7.750004 1.3444993,7.7605235 1.3320312,7.7617188 1.1362231,7.7993381 0.95913316,7.902698 0.83007812,8.0546875 l -0.0546875,0.064453 -0.0546875,0.064453 C 0.58676211,8.341902 0.51339205,8.5426315 0.51367188,8.75 v 1.5 1.5 c 2.5594e-4,0.237239 0.0968235,0.464208 0.26757812,0.628906 l 0.0449219,0.04492 c 2.6437e-4,2.65e-4 0.003613,0.0017 0.003906,0.002 0.0441198,0.04233 0.4074079,0.269482 0.5878907,0.294922 0.00732,10e-4 0.010575,-9.22e-4 0.017578,0 0.023787,0.06723 0.028819,0.126433 0.1796875,0.277344 0.3040987,0.303618 0.4064094,0.236682 0.484375,0.251953 0.077966,0.01527 0.1280143,0.0178 0.1796875,0.02148 0.1033464,0.0074 0.2060037,0.0098 0.3398437,0.0098 0.152991,0 0.2495012,0.0011 0.3730469,-0.0098 0.082153,-0.0072 0.2641165,-0.107038 0.4257813,-0.1875 0.1224697,0.06763 0.2670884,0.155974 0.3183593,0.166016 0.077965,0.01527 0.1280143,0.0178 0.1796875,0.02148 0.1033465,0.0074 0.2060036,0.0098 0.3398438,0.0098 0.1529907,0 0.2492011,0.0012 0.3730468,-0.0098 0.1106478,-0.0098 0.3541755,-0.07846 0.5703126,-0.251953 0.4649198,0.436857 0.7659749,0.665592 1.1425781,0.853516 0.434283,0.216706 0.9195605,0.312435 1.4589843,0.345703 0.064664,0.004 0.1886605,0.01548 0.1035157,0.0059 0.2054272,0.02349 0.219089,0.0074 0.3066406,0.002 0.087552,-0.0054 0.1838108,-0.0136 0.2832031,-0.02344 0.1987847,-0.01968 0.3681565,-0.03528 0.5644532,-0.07813 0.2877915,-0.06281 0.554848,-0.159463 0.8320312,-0.298828 0.3062673,-0.153988 0.6115963,-0.424418 0.9941413,-0.78125 0.199097,0.133491 0.416186,0.217815 0.515625,0.226562 0.123528,0.01087 0.220027,0.0098 0.373047,0.0098 0.133804,0 0.236478,-0.0024 0.339843,-0.0098 0.05168,-0.0037 0.101635,-0.0062 0.179688,-0.02148 0.04946,-0.0097 0.19276,-0.101262 0.30664,-0.160156 0.15567,0.07446 0.332197,0.174551 0.41211,0.18164 0.123828,0.01099 0.220027,0.0098 0.373047,0.0098 0.133804,0 0.236478,-0.0024 0.339843,-0.0098 0.05168,-0.0037 0.101635,-0.0062 0.179688,-0.02148 0.07805,-0.01529 0.180398,0.05202 0.484375,-0.251953 0.157884,-0.157672 0.133699,-0.202044 0.152344,-0.275391 0.01678,-0.002 0.02618,6.91e-4 0.04492,-0.002 0.180459,-0.02545 0.54384,-0.252692 0.58789,-0.294922 l 0.04883,-0.04687 C 15.393431,12.214271 15.490001,11.987268 15.490234,11.75 V 10.246094 8.7441406 C 15.490448,8.5119925 15.39841,8.2892724 15.234375,8.125 L 15.167965,8.058594 15.101555,7.992188 C 14.947163,7.8385559 14.741027,7.7480217 14.523438,7.7382812 14.499697,7.6679144 14.52555,7.6329877 14.388672,7.4960938 14.082126,7.1895476 13.98042,7.2592596 13.902344,7.2441406 c -0.07808,-0.015119 -0.127681,-0.019807 -0.179688,-0.023437 -0.104013,-0.00726 -0.208933,-0.00781 -0.345703,-0.00781 -0.13677,0 -0.241639,6.033e-4 -0.345703,0.00781 -0.05203,0.0036 -0.102026,0.00855 -0.179688,0.023437 -0.04469,0.00857 -0.186084,0.1043008 -0.28125,0.1445313 -0.09577,-0.040475 -0.238457,-0.1360183 -0.283203,-0.1445313 -0.07757,-0.014758 -0.127502,-0.019858 -0.179687,-0.023437 -0.104371,-0.00716 -0.209562,-0.00781 -0.347656,-0.00781 -0.104117,0 -0.185492,-0.00272 -0.300782,0.00391 -0.103002,0.00592 -0.29403,0.03385 -0.52539,0.1757812 0.10133,-0.1648788 0.2045,-0.3639383 0.216797,-0.4667969 0.0162,-0.135518 0.01632,-0.2343386 0.01953,-0.4023437 0.0043,-0.2229085 0.04208,-0.3464871 -0.05273,-0.6660156 C 11.06978,5.6976576 10.930609,5.4656958 10.759766,5.3359375 10.588923,5.2061792 10.457368,5.1761867 10.388672,5.15625 10.183153,5.096626 10.199018,5.120229 10.154297,5.117187 10.109577,5.114147 10.065647,5.112937 10.013672,5.111327 9.909715,5.108117 9.7736255,5.104957 9.5957031,5.103517 c -0.058727,-4.757e-4 -0.19571,3.232e-4 -0.2636719,0 V 5.015625 c -0.00411,-0.160431 0,-0.044814 0,-0.109375 C 9.4393083,4.880213 9.3910432,4.922707 9.6152344,4.837891 9.9362442,4.7187408 10.020179,4.5214848 10.128901,4.322266 h 0.158203 c 0.01303,-3.589e-4 0.02606,-0.00101 0.03906,-0.00195 0.480936,-0.024418 0.713406,-0.025628 0.863281,-0.027344 0.07494,-8.577e-4 0.130449,2.603e-4 0.230469,-0.00977 0.10002,-0.010026 0.268011,-0.054209 0.361328,-0.097656 0.393682,-0.1832975 0.75537,-0.583678 0.789062,-1.0898438 0.03363,-0.5051772 -0.285957,-0.9622196 -0.664062,-1.1855469 l -0.105469,-0.0625 C 11.666611,1.7678272 11.513536,1.7253435 11.357422,1.7246094 l -3.2851564,-0.00781 c -1.2230727,-0.00251 -2.0509327,-0.00308 -2.5859375,0 z"
     id="path1160-7-3"
     inkscape:connector-curvature="0"
     sodipodi:nodetypes="cssscscscccccccccccsscccccscccccsccsccccccccccccccccccccccccsccccsccsccsscsccsccccsccccccccccccccccsscccccscccccsccccccccccccccccccccc" />
</svg>

<svg width="16" height="16" viewBox="0 0 16 16" fill="none" xmlns="http://www.w3.org/2000/svg">
<path opacity="0.804" d="M5.48633 1.71682C5.21883 1.71836 5.02602 1.72123 4.88672 1.72463C4.81707 1.72633 4.7609 1.7275 4.70899 1.73049C4.65708 1.73348 4.6941 1.70095 4.45117 1.77151C4.09714 1.87434 3.93234 1.97935 3.70313 2.28323C3.50779 2.54219 3.51119 2.67342 3.48828 2.82034C3.46537 2.96725 3.4447 3.09813 3.50391 3.33401C3.5804 3.6388 3.7036 3.75486 3.81836 3.87307C3.93312 3.99128 4.05588 4.08707 4.22266 4.16995C4.27699 4.19695 4.5959 4.29839 4.78711 4.30862C4.97832 4.31884 5.22814 4.31891 5.74219 4.32229H5.90039C5.90039 4.32229 5.99917 4.31941 6.02735 4.47659C6.18762 4.77606 6.49599 4.89639 6.69532 4.94924V5.1094L5.9336 5.11135C5.71323 5.11193 5.5012 5.19563 5.33985 5.34572L5.28125 5.40041C5.2806 5.40106 5.27995 5.40171 5.2793 5.40236C5.25059 5.42932 4.98612 5.83367 4.96094 6.0215C4.93577 6.20934 4.94532 6.28714 4.94532 6.47854C4.94532 6.66834 4.93753 6.75254 4.96094 6.93166C4.97989 7.07667 5.12112 7.29963 5.20118 7.4219C5.19129 7.43091 5.1839 7.43417 5.17383 7.44338C5.16147 7.43319 5.16743 7.41969 5.1543 7.41018C4.87972 7.21115 4.68359 7.22342 4.56836 7.21682C4.45313 7.21022 4.3717 7.21291 4.26758 7.21291C4.12949 7.21291 4.02424 7.21351 3.91992 7.22072C3.86776 7.22432 3.81822 7.22917 3.74024 7.24416C3.69969 7.25196 3.56515 7.34827 3.48633 7.37502C3.48571 7.37463 3.48497 7.37344 3.48438 7.37307C3.44142 7.34607 3.40647 7.32788 3.37695 7.31448C3.31793 7.28768 3.28028 7.27682 3.24805 7.2676C3.18358 7.24917 3.14499 7.24351 3.11133 7.23831C3.04402 7.22789 2.99667 7.22411 2.94531 7.22073C2.8426 7.21397 2.73545 7.21096 2.62695 7.21096C2.51845 7.21096 2.41326 7.21396 2.31055 7.22073C2.25919 7.22411 2.21185 7.22789 2.14453 7.23831C2.11088 7.24352 2.07229 7.24917 2.00781 7.2676C1.97558 7.27681 1.93793 7.28768 1.87891 7.31448C1.84939 7.32788 1.81444 7.34607 1.77149 7.37307C1.72853 7.40007 1.61583 7.49552 1.61524 7.49612C1.4743 7.63708 1.4992 7.67506 1.47656 7.74612C1.46156 7.74703 1.44658 7.74834 1.43164 7.75003L1.47461 7.74807C1.43164 7.75003 1.3445 7.76055 1.33203 7.76174C1.13622 7.79936 0.959134 7.90272 0.830079 8.05471L0.775391 8.11916L0.720704 8.18362C0.586763 8.34193 0.513393 8.54266 0.513673 8.75002V10.25V11.75C0.513929 11.9873 0.610496 12.2142 0.781251 12.3789L0.826173 12.4239C0.826437 12.4241 0.829786 12.4255 0.830079 12.4258C0.874198 12.4682 1.23749 12.6953 1.41797 12.7208C1.42529 12.7218 1.42854 12.7198 1.43555 12.7208C1.45933 12.788 1.46437 12.8472 1.61523 12.9981C1.91933 13.3017 2.02164 13.2348 2.09961 13.2501C2.17758 13.2653 2.22762 13.2679 2.2793 13.2715C2.38264 13.2789 2.4853 13.2813 2.61914 13.2813C2.77213 13.2813 2.86864 13.2824 2.99219 13.2715C3.07434 13.2643 3.2563 13.1645 3.41797 13.084C3.54044 13.1517 3.68506 13.24 3.73633 13.2501C3.81429 13.2653 3.86434 13.2679 3.91602 13.2715C4.01936 13.2789 4.12202 13.2813 4.25586 13.2813C4.40885 13.2813 4.50506 13.2825 4.62891 13.2715C4.73955 13.2617 4.98308 13.1931 5.19922 13.0196C5.66414 13.4564 5.96519 13.6852 6.3418 13.8731C6.77608 14.0898 7.26136 14.1855 7.80078 14.2188C7.86545 14.2228 7.98944 14.2343 7.9043 14.2247C8.10972 14.2482 8.12339 14.2321 8.21094 14.2267C8.29849 14.2213 8.39475 14.2131 8.49414 14.2033C8.69293 14.1836 8.8623 14.168 9.05859 14.1251C9.34639 14.0623 9.61344 13.9657 9.89063 13.8263C10.1969 13.6723 10.5022 13.4019 10.8848 13.0451C11.0839 13.1786 11.301 13.2629 11.4004 13.2716C11.5239 13.2825 11.6204 13.2814 11.7734 13.2814C11.9072 13.2814 12.0099 13.279 12.1133 13.2716C12.165 13.2679 12.2149 13.2654 12.293 13.2501C12.3424 13.2404 12.4857 13.1489 12.5996 13.09C12.7553 13.1644 12.9318 13.2645 13.0117 13.2716C13.1355 13.2826 13.2317 13.2814 13.3848 13.2814C13.5186 13.2814 13.6212 13.279 13.7246 13.2716C13.7763 13.2679 13.8262 13.2654 13.9043 13.2501C13.9823 13.2349 14.0847 13.3022 14.3887 12.9982C14.5466 12.8405 14.5224 12.7962 14.541 12.7228C14.5578 12.7208 14.5672 12.7235 14.5859 12.7208C14.7664 12.6954 15.1298 12.4681 15.1738 12.4259L15.2227 12.379C15.3934 12.2143 15.49 11.9873 15.4902 11.75V10.2461V8.74416C15.4904 8.51202 15.3984 8.2893 15.2344 8.12502L15.168 8.05862L15.1016 7.99221C14.9472 7.83858 14.741 7.74805 14.5234 7.73831C14.4997 7.66794 14.5256 7.63301 14.3887 7.49612C14.0821 7.18957 13.9804 7.25928 13.9023 7.24416C13.8243 7.22905 13.7747 7.22436 13.7227 7.22073C13.6186 7.21347 13.5137 7.21292 13.377 7.21292C13.2402 7.21292 13.1353 7.21352 13.0313 7.22073C12.9792 7.22433 12.9292 7.22928 12.8516 7.24416C12.8069 7.25273 12.6655 7.34847 12.5703 7.3887C12.4745 7.34822 12.3319 7.25268 12.2871 7.24416C12.2095 7.22941 12.1596 7.22431 12.1074 7.22073C12.0031 7.21357 11.8979 7.21292 11.7598 7.21292C11.6556 7.21292 11.5743 7.2102 11.459 7.21683C11.356 7.22275 11.165 7.25068 10.9336 7.39261C11.0349 7.22773 11.1381 7.02867 11.1504 6.92581C11.1666 6.79029 11.1667 6.69147 11.1699 6.52347C11.1742 6.30056 11.212 6.17698 11.1172 5.85745C11.0698 5.69768 10.9306 5.46572 10.7598 5.33596C10.5889 5.2062 10.4574 5.17621 10.3887 5.15627C10.1832 5.09665 10.199 5.12025 10.1543 5.11721C10.1096 5.11417 10.0656 5.11296 10.0137 5.11135C9.90972 5.10814 9.77363 5.10498 9.5957 5.10354C9.53698 5.10307 9.39999 5.10386 9.33203 5.10354V5.01565C9.32792 4.85522 9.33203 4.97084 9.33203 4.90627C9.43931 4.88024 9.39104 4.92273 9.61524 4.83792C9.93625 4.71876 10.0202 4.52151 10.1289 4.32229H10.2871C10.3001 4.32193 10.3132 4.32128 10.3262 4.32034C10.8071 4.29592 11.0396 4.29471 11.1894 4.293C11.2644 4.29214 11.3199 4.29326 11.4199 4.28323C11.5199 4.2732 11.6879 4.22902 11.7812 4.18557C12.1749 4.00227 12.5366 3.60189 12.5703 3.09573C12.6039 2.59055 12.2843 2.13351 11.9062 1.91018L11.8008 1.84768C11.6666 1.76785 11.5135 1.72537 11.3574 1.72463L8.07227 1.71682C6.84919 1.71431 6.02133 1.71374 5.48633 1.71682V1.71682Z" fill="#EBE7E4"/>
</svg>
